src/components/common/AdvancedFilter/icons/ended.svg

<svg viewBox="0 0 512 512" xmlns="http://www.w3.org/2000/svg"><path fill="#fff" d="m256 512c-140.96875 0-256-115.050781-256-256 0-140.96875 115.050781-256 256-256 140.96875 0 256 115.050781 256 256 0 140.96875-115.050781 256-256 256zm0-482c-124.617188 0-226 101.382812-226 226s101.382812 226 226 226 226-101.382812 226-226-101.382812-226-226-226zm0 0"/><path fill="#fff" d="m361 361h-210v-210h210zm-180-30h150v-150h-150zm0 0"/></svg>

<svg viewBox="0 0 512 512" xmlns="http://www.w3.org/2000/svg"><path fill="#fff" d="M256 512C115.031 512 0 396.95 0 256 0 115.031 115.05 0 256 0c140.969 0 256 115.05 256 256 0 140.969-115.05 256-256 256zm0-482C131.383 30 30 131.383 30 256s101.383 226 226 226 226-101.383 226-226S380.617 30 256 30zm0 0"/><path fill="#fff" d="M361 361H151V151h210zm-180-30h150V181H181zm0 0"/></svg>
